svg/Pictogram/pictograms-aem-0020-live_electrical_wire_contact.svg

<?xml version="1.0" encoding="ISO-8859-1" standalone="yes"?>
<svg height="304.014" width="304.015">
  <metadata>
    <rdf:RDF xmlns:cc="http://web.resource.org/cc/" xmlns:dc="http://purl.org/dc/elements/1.1/" xmlns:rdf="http://www.w3.org/1999/02/22-rdf-syntax-ns#">
      <cc:Work rdf:about="">
        <dc:title></dc:title>
        <dc:description></dc:description>
        <dc:subject>
          <rdf:Bag>
            <rdf:li></rdf:li>
          </rdf:Bag>
        </dc:subject>
        <dc:publisher>
          <cc:Agent rdf:about="http://www.unece.org/trans/danger/publi/ghs/pictograms.html">
            <dc:title>Source: UNECE GHS of Classification and Labeling of Chemicals, Source: AEM Pictorial Database, Source: AEM Pictorial Database, Source: AEM Pictorial Database, Source: AEM Pictorial Database</dc:title>
          </cc:Agent>
        </dc:publisher>
        <dc:creator>
          <cc:Agent>
            <dc:title></dc:title>
          </cc:Agent>
        </dc:creator>
        <dc:rights>
          <cc:Agent>
            <dc:title></dc:title>
          </cc:Agent>
        </dc:rights>
        <dc:date></dc:date>
        <dc:format>image/svg+xml</dc:format>
        <dc:type rdf:resource="http://purl.org/dc/dcmitype/StillImage"/>
        <cc:license rdf:resource="http://en.wikipedia.org/wiki/Public_domain"/>
        <dc:language>en</dc:language>
      </cc:Work>
    </rdf:RDF>
  </metadata>
  <defs><marker id="ArrowEnd" markerHeight="3" markerUnits="strokeWidth" markerWidth="4" orient="auto" refX="0" refY="5" viewBox="0 0 10 10"><path d="M 0 0 L 10 5 L 0 10 z"/></marker><marker id="ArrowStart" markerHeight="3" markerUnits="strokeWidth" markerWidth="4" orient="auto" refX="10" refY="5" viewBox="0 0 10 10"><path d="M 10 0 L 0 5 L 10 10 z"/></marker> </defs>
  <g id="g2958" transform="matrix(1.3532768,0,0,1.3532781,-53.207834,-52.192858)">
    <path d="M 76.4054 71.7334C 83.1834 70.4984 89.6634 78.4134 92.0384 83.1634C 93.4644 84.5884 95.1244 83.1634 96.5504 83.1634C 96.3124 84.8274 93.9374 84.8274 92.5154 85.5384L 94.8904 88.6244L 91.0894 86.9634C 90.6124 88.3854 91.0894 90.2884 90.1404 91.2374C 88.9524 90.5264 91.3274 86.0104 87.9994 86.0104C 84.1984 81.4984 81.1554 74.7764 73.5154 76.9874C 65.1284 79.6004 57.1244 78.6514 51.6634 74.3744L 51.6634 67.4874C 58.5504 74.8504 65.4094 73.7374 76.4054 71.7334" style="stroke:none; fill-rule:evenodd; fill:#000000"/>
    <path d="M 172.366 85.9794C 179.487 85.9794 185.257 80.2094 185.257 73.0964C 185.257 65.9834 179.491 60.2134 172.374 60.2094C 165.261 60.2094 159.491 65.9754 159.487 73.0924C 159.487 80.2064 165.257 85.9754 172.366 85.9794" style="stroke:none; fill-rule:evenodd; fill:#000000"/>
    <path d="M 173.026 115.225L 159.249 107.151L 166.612 102.635L 97.6444 90.6474C 93.9724 91.0454 91.1014 94.1204 91.1014 97.8974C 91.1014 101.948 94.3824 105.229 98.4334 105.229C 98.7724 105.229 99.1044 105.174 99.4334 105.127L 153.772 105.143L 153.772 153.213L 65.5464 194.87C 65.5154 194.885 65.4764 194.889 65.4404 194.909C 61.7804 196.639 60.2144 201.002 61.9404 204.663C 63.6674 208.327 68.0384 209.897 71.6984 208.166C 72.0114 208.018 72.2844 207.827 72.5624 207.647L 162.925 164.948L 165.761 166.077L 118.878 232.241C 118.854 232.268 118.823 232.291 118.808 232.323C 116.456 235.624 117.23 240.202 120.526 242.541C 123.819 244.889 128.397 244.127 130.753 240.827C 130.944 240.541 131.093 240.241 131.245 239.948L 190.565 156.127L 190.565 140.612L 154.972 123.061L 173.022 115.225" style="stroke:none; fill-rule:evenodd; fill:#000000"/>
    <path d="M 250.39 149.163C 250.155 148.913 249.89 148.706 249.624 148.498L 197.515 92.4284C 195.511 90.4204 190.491 90.5964 190.491 90.5964L 105.601 90.5844L 185.612 99.7884L 170.179 105.725L 190.565 110.596L 190.565 106.284L 239.597 159.069C 239.62 159.092 239.64 159.131 239.663 159.159C 242.421 162.12 247.065 162.284 250.026 159.526C 252.987 156.764 253.147 152.124 250.39 149.163" style="stroke:none; fill-rule:evenodd; fill:#000000"/>
    <path d="M 190.565 139.327L 190.565 112.221L 163.288 122.827L 190.565 139.327" style="stroke:none; fill-rule:evenodd; fill:#000000"/>
    <path d="M 29.6204 265.393L 2.62042 265.393" style="stroke:#000000; stroke-width:0.5; fill:none"/>
    <path d="M 38.6204 274.393L 38.6204 301.393" style="stroke:#000000; stroke-width:0.5; fill:none"/>
    <path d="M 29.6204 38.6204L 2.62042 38.6204" style="stroke:#000000; stroke-width:0.5; fill:none"/>
    <path d="M 38.6204 29.6204L 38.6204 2.62042" style="stroke:#000000; stroke-width:0.5; fill:none"/>
    <path d="M 274.394 38.6204L 301.394 38.6204" style="stroke:#000000; stroke-width:0.5; fill:none"/>
    <path d="M 265.394 29.6204L 265.394 2.62042" style="stroke:#000000; stroke-width:0.5; fill:none"/>
    <path d="M 274.394 265.393L 301.394 265.393" style="stroke:#000000; stroke-width:0.5; fill:none"/>
    <path d="M 265.394 274.393L 265.394 301.393" style="stroke:#000000; stroke-width:0.5; fill:none"/>
  </g>
</svg>

<svg viewBox="0 0 304.01 304.01"><g transform="matrix(1.35328 0 0 1.35328-53.21-52.19)" fill-rule="evenodd"><path d="m76.41 71.73c6.778-1.235 13.258 6.68 15.633 11.43 1.426 1.425 3.086 0 4.512 0-.238 1.664-2.613 1.664-4.03 2.375l2.375 3.086-3.801-1.661c-.477 1.422 0 3.325-.949 4.274-1.188-.711 1.187-5.227-2.141-5.227-3.801-4.512-6.844-11.234-14.484-9.02-8.387 2.613-16.391 1.664-21.852-2.613v-6.887c6.887 7.363 13.746 6.25 24.742 4.246"/><path d="m172.37 85.979c7.121 0 12.891-5.77 12.891-12.883 0-7.113-5.766-12.883-12.883-12.887-7.113 0-12.883 5.766-12.887 12.883 0 7.114 5.77 12.883 12.879 12.887"/><path d="m173.03 115.22l-13.777-8.07 7.363-4.516-68.968-11.988c-3.672.398-6.543 3.473-6.543 7.25 0 4.051 3.281 7.332 7.332 7.332.339 0 .671-.055 1-.102l54.34.016v48.07l-88.23 41.657c-.031.015-.07.019-.106.039-3.66 1.73-5.226 6.093-3.5 9.754 1.727 3.664 6.098 5.234 9.758 3.503.313-.148.586-.339.864-.519l90.36-42.699 2.836 1.129-46.883 66.16c-.024.027-.055.05-.07.082-2.352 3.301-1.578 7.879 1.718 10.218 3.293 2.348 7.871 1.586 10.227-1.714.191-.286.34-.586.492-.879l59.32-83.82v-15.515l-35.593-17.551 18.05-7.836"/><path d="m250.39 149.16c-.235-.25-.5-.457-.766-.665l-52.11-56.07c-2-2.01-7.02-1.832-7.02-1.832l-84.89-.012 80.01 9.204-15.433 5.937 20.386 4.871v-4.312l49.03 52.785c.023.023.043.062.066.09 2.758 2.961 7.402 3.125 10.363.367 2.961-2.762 3.121-7.402.364-10.363"/><path d="m190.56 139.33v-27.11l-27.28 10.606 27.28 16.5"/></g></svg>
